svg/dead.svg

<?xml version="1.0" encoding="UTF-8"?>
<svg xmlns="http://www.w3.org/2000/svg" xmlns:xlink="http://www.w3.org/1999/xlink" width="32" height="32" viewBox="0 0 32 32">
<path fill-rule="nonzero" fill="rgb(0%, 0%, 0%)" fill-opacity="1" d="M 30.398438 11.457031 C 30.398438 6.015625 25.984375 1.601562 20.542969 1.601562 L 11.457031 1.601562 C 6.015625 1.601562 1.601562 6.015625 1.601562 11.457031 L 1.601562 20.511719 C 1.601562 25.984375 6.015625 30.398438 11.457031 30.398438 L 20.511719 30.398438 C 25.984375 30.398438 30.398438 25.984375 30.398438 20.542969 Z M 7.328125 14.175781 L 7.105469 13.953125 C 6.878906 13.722656 6.878906 13.351562 7.105469 13.121094 L 8.257812 11.96875 L 7.136719 10.878906 C 6.910156 10.648438 6.910156 10.277344 7.136719 10.046875 L 7.359375 9.824219 C 7.589844 9.601562 7.957031 9.601562 8.191406 9.824219 L 9.34375 10.976562 L 10.496094 9.824219 C 10.730469 9.601562 11.09375 9.601562 11.328125 9.824219 L 11.550781 10.046875 C 11.777344 10.277344 11.777344 10.648438 11.550781 10.878906 L 10.398438 12.03125 L 11.550781 13.183594 C 11.777344 13.414062 11.777344 13.785156 11.550781 14.015625 L 11.328125 14.238281 C 11.097656 14.464844 10.726562 14.464844 10.496094 14.238281 L 9.34375 13.089844 L 8.191406 14.238281 C 7.921875 14.410156 7.570312 14.382812 7.328125 14.175781 M 16 18.273438 C 11.902344 18.273438 8.574219 18.078125 8.574219 17.855469 C 8.574219 17.632812 11.902344 17.441406 16 17.441406 C 20.097656 17.441406 23.425781 17.632812 23.425781 17.855469 C 23.425781 18.078125 20.097656 18.273438 16 18.273438 M 24.894531 13.152344 C 25.121094 13.382812 25.121094 13.753906 24.894531 13.984375 L 24.671875 14.207031 C 24.441406 14.433594 24.070312 14.433594 23.839844 14.207031 L 22.71875 13.054688 L 21.566406 14.207031 C 21.335938 14.433594 20.964844 14.433594 20.734375 14.207031 L 20.511719 13.984375 C 20.289062 13.75 20.289062 13.382812 20.511719 13.152344 L 21.664062 12 L 20.542969 10.878906 C 20.320312 10.644531 20.320312 10.28125 20.542969 10.046875 L 20.769531 9.824219 C 21.003906 9.601562 21.371094 9.601562 21.601562 9.824219 L 22.753906 10.976562 L 23.902344 9.824219 C 24.132812 9.601562 24.5 9.601562 24.734375 9.824219 L 24.960938 10.046875 C 25.183594 10.28125 25.183594 10.644531 24.960938 10.878906 L 23.808594 12.03125 Z M 24.894531 13.152344 "/>
</svg>

<svg role="img" viewBox="0 0 32 32" height="32" width="32" xmlns="http://www.w3.org/2000/svg"><path d="M30.398 11.457c0-5.441-4.414-9.855-9.855-9.855h-9.086c-5.441 0-9.855 4.414-9.855 9.855v9.055c0 5.472 4.414 9.886 9.855 9.886h9.055c5.472 0 9.886-4.414 9.886-9.855Zm-23.07 2.719-.223-.223a.594.594 0 0 1 0-.832l1.153-1.152-1.121-1.09a.594.594 0 0 1 0-.832l.222-.223a.602.602 0 0 1 .832 0l1.153 1.153 1.152-1.153a.602.602 0 0 1 .832 0l.223.223a.594.594 0 0 1 0 .832l-1.153 1.152 1.153 1.153a.594.594 0 0 1 0 .832l-.223.222a.594.594 0 0 1-.832 0L9.344 13.09 8.19 14.238a.726.726 0 0 1-.863-.062M16 18.273c-4.098 0-7.426-.195-7.426-.418 0-.222 3.328-.414 7.426-.414 4.098 0 7.426.192 7.426.414 0 .223-3.328.418-7.426.418m8.895-5.12a.594.594 0 0 1 0 .831l-.223.223a.594.594 0 0 1-.832 0l-1.121-1.152-1.153 1.152a.594.594 0 0 1-.832 0l-.222-.223a.602.602 0 0 1 0-.832L21.664 12l-1.121-1.121a.602.602 0 0 1 0-.832l.227-.223a.602.602 0 0 1 .832 0l1.152 1.153 1.148-1.153a.602.602 0 0 1 .832 0l.227.223a.602.602 0 0 1 0 .832l-1.152 1.152Zm0 0"/></svg>
